X: 20829
T: Johnny's Gone To France
R: polka
M: 2/4
K: Eminor
B/c/|BEEd B/c/B AG|FD A2 FD AB/c/|BEEd B/c/B AG|FDAF E2 E:|
|:z|Bdef g/f/e de|Bd A2Bd AB/c/|Bd ef g/f/e de|Bd AF E2 EB/c/|
Bdef g/f/e de|Bd A2Bd AB/c/|Bd ef g/f/e de|1 Bd AF E2 E:|2 Bd AF EFGA|
|:BEEd B2 AG|FDAD FDAB|BEEd B2 AG|FDAF E2 E2:|
|:Bdef g>fed|BdAd BdAd|Bdef g>fed|B<d AF E2 E2:|

